usr/share/icons/biglinux-icons-material-dark/16/actions/dialog-layers.svg

<svg xmlns="http://www.w3.org/2000/svg" viewBox="0 0 16 16">
<defs id="defs3051">
<style id="current-color-scheme" type="text/css">
.ColorScheme-Text{color:#dedede}
</style>
</defs>
<path d="M5 3 2 6h9l3-3zm0 4-3 3h9l3-3zm0 4-3 3h9l3-3z" class="ColorScheme-Text" style="fill:currentColor;fill-opacity:1;stroke:none"/>
</svg>

<svg xmlns="http://www.w3.org/2000/svg" viewBox="0 0 16 16">
  <defs id="defs3051">
    <style type="text/css" id="current-color-scheme">
      .ColorScheme-Text {
        color:#dedede;
      }
      </style>
  </defs>
 <path style="fill:currentColor;fill-opacity:1;stroke:none" 
     d="M 5 3 L 2 6 L 11 6 L 14 3 L 5 3 z M 5 7 L 2 10 L 11 10 L 14 7 L 5 7 z M 5 11 L 2 14 L 11 14 L 14 11 L 5 11 z "
     class="ColorScheme-Text"
     />
</svg>
